X: 080860
T: Hould the Reins
S: "First Collection of Traditional Irish Music" (M.Mulvihill)
Z: B.Black
L: 1/8
M: 4/4
R: reel
K: G
f|g2 dc BG (3GFG|ABcA d2 ef|g2 dc BG (3GFG|AdcA G2 ef|
g2 dc BG (3GFG|ABcA d2 ef|(3gag dc BG (3GFG|AdcA G3 :|
A|df (3fef dg (3gfg|defd edcA|fd (3fef dg (3gfg|fdcA GABc|
df (3fef dg (3gfg|defd edcA|gd (3gfg bgag|fdcA G3 :|
